svg/fluentui-system-icons/ic_fluent_image_prohibited_24_regular.svg

<svg width="24" height="24" viewBox="0 0 24 24" fill="none" xmlns="http://www.w3.org/2000/svg">
<path d="M6.5 12C9.53757 12 12 9.53757 12 6.5C12 3.46243 9.53757 1 6.5 1C3.46243 1 1 3.46243 1 6.5C1 9.53757 3.46243 12 6.5 12ZM6.5 10.5C5.6665 10.5 4.89255 10.2451 4.25185 9.80892L9.80892 4.25185C10.2451 4.89255 10.5 5.6665 10.5 6.5C10.5 8.70914 8.70914 10.5 6.5 10.5ZM3.19117 8.74828C2.75497 8.10756 2.5 7.33356 2.5 6.5C2.5 4.29086 4.29086 2.5 6.5 2.5C7.33356 2.5 8.10756 2.75497 8.74828 3.19117L3.19117 8.74828ZM4.5 12.6865C3.96653 12.5142 3.46321 12.2747 3 11.9782V17.75C3 19.5449 4.45507 21 6.25 21H17.75C19.5449 21 21 19.5449 21 17.75V6.25C21 4.45507 19.5449 3 17.75 3H11.9782C12.2747 3.46321 12.5142 3.96653 12.6865 4.5H17.75C18.7165 4.5 19.5 5.2835 19.5 6.25V17.75C19.5 17.9588 19.4634 18.159 19.3964 18.3447L13.5742 12.6431L13.4458 12.5266C12.5675 11.7885 11.2589 11.8273 10.4258 12.643L4.60326 18.3437C4.53643 18.1583 4.5 17.9584 4.5 17.75V12.6865ZM12.5247 13.7148L18.3305 19.4014C18.1489 19.4653 17.9535 19.5 17.75 19.5H6.25C6.04613 19.5 5.8504 19.4651 5.66845 19.4011L11.4752 13.7148L11.5588 13.644C11.8501 13.4316 12.2596 13.4553 12.5247 13.7148ZM17.5042 8.75212C17.5042 7.50831 16.4959 6.5 15.2521 6.5C14.0083 6.5 13 7.50831 13 8.75212C13 9.99592 14.0083 11.0042 15.2521 11.0042C16.4959 11.0042 17.5042 9.99592 17.5042 8.75212ZM14.5 8.75212C14.5 8.33673 14.8367 8 15.2521 8C15.6675 8 16.0042 8.33673 16.0042 8.75212C16.0042 9.1675 15.6675 9.50423 15.2521 9.50423C14.8367 9.50423 14.5 9.1675 14.5 8.75212Z" fill="#212121"/>
</svg>

<svg xmlns="http://www.w3.org/2000/svg" width="24" height="24"><path d="M6.5 12a5.5 5.5 0 1 0 0-11 5.5 5.5 0 0 0 0 11Zm0-1.5a3.981 3.981 0 0 1-2.248-.691l5.557-5.557A4 4 0 0 1 6.5 10.5ZM3.191 8.748a4 4 0 0 1 5.557-5.557L3.191 8.748ZM4.5 12.687a6.472 6.472 0 0 1-1.5-.709v5.772A3.25 3.25 0 0 0 6.25 21h11.5A3.25 3.25 0 0 0 21 17.75V6.25A3.25 3.25 0 0 0 17.75 3h-5.772c.297.463.536.967.709 1.5h5.063c.966 0 1.75.784 1.75 1.75v11.5c0 .209-.037.409-.104.595l-5.822-5.702-.128-.116a2.25 2.25 0 0 0-3.02.116l-5.823 5.7a1.747 1.747 0 0 1-.103-.593v-5.063Zm8.025 1.028L18.33 19.4a1.746 1.746 0 0 1-.581.099H6.25c-.204 0-.4-.035-.582-.099l5.807-5.686.084-.071a.75.75 0 0 1 .966.07Zm4.98-4.963a2.252 2.252 0 1 0-4.505 0 2.252 2.252 0 0 0 4.504 0Zm-3.005 0a.752.752 0 1 1 1.504 0 .752.752 0 0 1-1.504 0Z"/></svg>
